src/24/panel/qnapi-panel.svg

<svg xmlns="http://www.w3.org/2000/svg" width="24" height="24" version="1.1">
 <defs>
  <style id="current-color-scheme" type="text/css">
   .ColorScheme-Text { color:#bebebe; } .ColorScheme-Highlight { color:#5294e2; }
  </style>
 </defs>
 <path style="fill:currentColor" class="ColorScheme-Text" d="M 4.888672,5.0000002 C 4.396182,5.0000002 4,5.3903002 4,5.8750002 L 4,17 c 0,0.48475 0.396442,0.98462 0.888672,1 L 13,18 l 1.5,2 1.5,-2 3.111328,0 C 19.603328,18 20,17.485 20,17 L 20,5.8750002 c 0,-0.4847 -0.395672,-0.875 -0.888672,-0.875 l -14.222656,0 z m 2.111328,3 10,0 L 17,9 7,9 7,8.0000002 Z M 7,11 l 10,0 0,1 -10,0 0,-1 z m 0,3 6,0 0,1 -6,0 0,-1 z"/>
</svg>

<svg xmlns="http://www.w3.org/2000/svg" width="24" height="24"><defs><style id="current-color-scheme" type="text/css"></style></defs><path d="M4.889 5A.88.88 0 0 0 4 5.875V17c0 .485.396.985.889 1H13l1.5 2 1.5-2h3.111c.492 0 .889-.515.889-1V5.875A.88.88 0 0 0 19.111 5H4.89zM7 8h10v1H7V8zm0 3h10v1H7v-1zm0 3h6v1H7v-1z" fill="currentColor" color="#bebebe"/></svg>
